elevenfeat/templates/form/ckeditor/icons/superscript.svg

<svg width="43" height="43" viewBox="0 0 43 43" xmlns="http://www.w3.org/2000/svg"><title>superscript</title><path d="M0 13v6h10v24h6V19h10v-6H0zm25-7h6v14h6V6h6V0H25v6z" fill="#000" fill-rule="evenodd"/></svg>

<?xml version="1.0" encoding="UTF-8" standalone="no"?>
<svg width="43px" height="43px" viewBox="0 0 43 43" version="1.1" xmlns="http://www.w3.org/2000/svg" xmlns:xlink="http://www.w3.org/1999/xlink">
    <!-- Generator: Sketch 39.1 (31720) - http://www.bohemiancoding.com/sketch -->
    <title>superscript</title>
    <desc>Created with Sketch.</desc>
    <defs></defs>
    <g id="Page-1" stroke="none" stroke-width="1" fill="none" fill-rule="evenodd">
        <g id="superscript" fill="#000000">
            <path d="M0,13 L0,19 L10,19 L10,43 L16,43 L16,19 L26,19 L26,13 L0,13 L0,13 Z M25,6 L31,6 L31,20 L37,20 L37,6 L43,6 L43,0 L25,0 L25,6 L25,6 Z" id="Shape"></path>
        </g>
    </g>
</svg>
